Obsidian/actions/24s/office-chart-area-percentage.svg

<svg height="24" viewBox="0 0 24 24" width="24" xmlns="http://www.w3.org/2000/svg"><path d="m2 2v12h12v-1h-11v-11zm2 0v1h1v3h1v-4h-1zm4.5 0c-.831 0-1.5.669-1.5 1.5v1c0 .831.669 1.5 1.5 1.5s1.5-.669 1.5-1.5v-1c0-.831-.669-1.5-1.5-1.5zm4 0c-.831 0-1.5.669-1.5 1.5v1c0 .831.669 1.5 1.5 1.5s1.5-.669 1.5-1.5v-1c0-.831-.669-1.5-1.5-1.5zm-4 1c.277 0 .5.223.5.5v1c0 .277-.223.5-.5.5s-.5-.223-.5-.5v-1c0-.277.223-.5.5-.5zm4 0c.277 0 .5.223.5.5v1c0 .277-.223.5-.5.5s-.5-.223-.5-.5v-1c0-.277.223-.5.5-.5zm-3.9101562 4 3.5351562 3.535156.001953-.001953.001953.001953 1.875-1.8730466v-1.4160156l-1.876953 1.8769531-2.123047-2.1230469zm-2.9902344 2-2 2h-.5917969v1h.9980469v-.007812l.0078125.007812 2-2h1.5917969l2 2h4.4023432v-1h-3.988281l-1.9999998-2z" fill="#bebebe" transform="translate(4 4)"/></svg>

<svg xmlns="http://www.w3.org/2000/svg" width="24" height="24" viewBox="0 0 24 24">
 <defs>
  <style id="current-color-scheme" type="text/css">
   .ColorScheme-Text { color:#bebebe; } .ColorScheme-Highlight { color:#4285f4; }
  </style>
 </defs>
 <path style="fill:currentColor" class="ColorScheme-Text" d="M 2 2 L 2 14 L 14 14 L 14 13 L 3 13 L 3 2 L 2 2 z M 4 2 L 4 3 L 5 3 L 5 6 L 6 6 L 6 2 L 5 2 L 4 2 z M 8.5 2 C 7.669 2 7 2.669 7 3.5 L 7 4.5 C 7 5.331 7.669 6 8.5 6 C 9.331 6 10 5.331 10 4.5 L 10 3.5 C 10 2.669 9.331 2 8.5 2 z M 12.5 2 C 11.669 2 11 2.669 11 3.5 L 11 4.5 C 11 5.331 11.669 6 12.5 6 C 13.331 6 14 5.331 14 4.5 L 14 3.5 C 14 2.669 13.331 2 12.5 2 z M 8.5 3 C 8.777 3 9 3.223 9 3.5 L 9 4.5 C 9 4.777 8.777 5 8.5 5 C 8.223 5 8 4.777 8 4.5 L 8 3.5 C 8 3.223 8.223 3 8.5 3 z M 12.5 3 C 12.777 3 13 3.223 13 3.5 L 13 4.5 C 13 4.777 12.777 5 12.5 5 C 12.223 5 12 4.777 12 4.5 L 12 3.5 C 12 3.223 12.223 3 12.5 3 z M 8.5898438 7 L 12.125 10.535156 L 12.126953 10.533203 L 12.128906 10.535156 L 14.003906 8.6621094 L 14.003906 7.2460938 L 12.126953 9.1230469 L 10.003906 7 L 8.5898438 7 z M 5.5996094 9 L 3.5996094 11 L 3.0078125 11 L 3.0078125 12 L 4.0058594 12 L 4.0058594 11.992188 L 4.0136719 12 L 6.0136719 10 L 7.6054688 10 L 9.6054688 12 L 14.007812 12 L 14.007812 11 L 10.019531 11 L 8.0195312 9 L 5.5996094 9 z" transform="translate(4 4)"/>
</svg>
